X: 32894
T: Possum's Tail Is Bare, The
R: reel
M: 4/4
K: Dmajor
|:DE|"D" F2 FF FEDF|"G" G2 G2 B3 B|"D" A2 F2 E2 D2|"A" [A,4E4][A,2E2] DE|
"D" F2 FF FEDF|"G" G2 G2 B3 B|"D" A2 F2 "A" E2 C2|"D" D4D2:|
|:FE|"D" D2 F2 A2 B2|"C" [E3=c3] c d2 dc|"G" B2 G2 Bc d2|"A" A3 A A2 AB/c/|
"D" d2 dd dBAF|"G" G2 G2 B3 B|"D" A2 F2 "A" E2 C2|"D" D4D2:|

